applications/plugins/org.csstudio.opibuilder.imagelib/SymbolLibrary/SVG/Fluid/Valves_with_Actuators/VC 3-Positions 2 way-Valves Control Valve 2.svg

<?xml version="1.0" encoding="UTF-8" standalone="no"?>
<!-- Generated by Microsoft Visio 11.0, SVG Export, v1.0 FL_EF010101 bis.svg Page 1 -->

<!--
/*******************************************************************************
* Copyright (c) 2010-2014 ITER Organization.
* All rights reserved. This program and the accompanying materials
* are made available under the terms of the Eclipse Public License v1.0
* which accompanies this distribution, and is available at
* http://www.eclipse.org/legal/epl-v10.html
******************************************************************************/
-->
<svg
   xmlns:v="http://schemas.microsoft.com/visio/2003/SVGExtensions/"
   xmlns:dc="http://purl.org/dc/elements/1.1/"
   xmlns:cc="http://creativecommons.org/ns#"
   xmlns:rdf="http://www.w3.org/1999/02/22-rdf-syntax-ns#"
   xmlns:svg="http://www.w3.org/2000/svg"
   xmlns="http://www.w3.org/2000/svg"
   xmlns:sodipodi="http://sodipodi.sourceforge.net/DTD/sodipodi-0.dtd"
   xmlns:inkscape="http://www.inkscape.org/namespaces/inkscape"
   width="22"
   height="44"
   viewBox="0 0 17.599979 35.19996"
   xml:space="preserve"
   color-interpolation-filters="sRGB"
   class="st3"
   id="svg2"
   version="1.1"
   inkscape:version="0.48.2 r9819"
   sodipodi:docname="FL_EF07CD_CODAC.svg"
   style="font-size:12px;fill:none;stroke-linecap:square;stroke-miterlimit:3;overflow:visible"><metadata
   id="metadata32"><rdf:RDF><cc:Work
       rdf:about=""><dc:format>image/svg+xml</dc:format><dc:type
         rdf:resource="http://purl.org/dc/dcmitype/StillImage" /><dc:title /></cc:Work></rdf:RDF></metadata><defs
   id="defs30">
		
		<v:pageProperties
   v:shadowOffsetY="-8.50395"
   v:shadowOffsetX="8.50395"
   v:drawingUnits="24"
   v:pageScale="0.0393701"
   v:drawingScale="0.0393701" />
		
		
	
			
			
			
		
			
			
		
				
				
			
				
				
			</defs><sodipodi:namedview
   pagecolor="#ffffff"
   bordercolor="#666666"
   borderopacity="1"
   objecttolerance="10"
   gridtolerance="10"
   guidetolerance="10"
   inkscape:pageopacity="0"
   inkscape:pageshadow="2"
   inkscape:window-width="1680"
   inkscape:window-height="1028"
   id="namedview28"
   showgrid="true"
   inkscape:zoom="14.01018"
   inkscape:cx="7.3753156"
   inkscape:cy="19.618013"
   inkscape:window-x="1358"
   inkscape:window-y="-8"
   inkscape:window-maximized="1"
   inkscape:current-layer="svg2"
   fit-margin-top="0"
   fit-margin-left="0"
   fit-margin-right="0"
   fit-margin-bottom="0"><inkscape:grid
     type="xygrid"
     id="grid2990"
     empspacing="5"
     visible="true"
     enabled="true"
     snapvisiblegridlinesonly="true" /></sodipodi:namedview>
	<v:documentProperties
   v:langID="1036" />

	<style
   type="text/css"
   id="style4">
	
		.st1 {fill:#ffffff;stroke:none;stroke-linecap:round;stroke-linejoin:round;stroke-width:0.720001}
		.st2 {fill:#ffffff;stroke:#000000;stroke-linecap:round;stroke-linejoin:round;stroke-width:0.720001}
		.st3 {fill:none;fill-rule:evenodd;font-size:12px;overflow:visible;stroke-linecap:square;stroke-miterlimit:3}
	
	</style>

	
<g
   id="g3024"><rect
     style="fill:#ffffff;stroke:none"
     x="-5e-007"
     y="-0.0159449"
     width="0.0159449"
     height="0.0159449"
     class="st1"
     id="rect16" /><rect
     style="fill:#ffffff;stroke:none"
     x="17.599979"
     y="35.184013"
     width="0.0159449"
     height="0.0159449"
     class="st1"
     id="rect21" /><g
     transform="translate(-4.5934252,-2.0719963)"
     id="g2999"><path
       style="fill:#a6a6a6;fill-opacity:1;stroke:#000000;stroke-width:0.72000098;stroke-linecap:round;stroke-linejoin:round"
       inkscape:connector-curvature="0"
       d="m 4.97198,24.124412 0,-8.5 17.01,8.5 0,-8.5 -17.01,8.5 z"
       class="st2"
       id="path26" /><path
       style="font-size:12px;fill:#ffffff;fill-opacity:1;fill-rule:evenodd;stroke-linecap:square;stroke-miterlimit:3;overflow:visible"
       inkscape:connector-curvature="0"
       id="path31"
       class="st3"
       d="m 13.463762,11.006913 8.509986,0 a 8.5049861,8.5049861 0 1 0 -17.0099717,0 l 8.4999857,0 z" /><path
       style="font-size:12px;fill:none;stroke:#000000;stroke-width:0.71999884;stroke-linecap:round;stroke-linejoin:round;stroke-miterlimit:3"
       inkscape:connector-curvature="0"
       id="path33"
       class="st4"
       d="m 13.463762,11.006913 8.509986,0 a 8.5049861,8.5049861 0 1 0 -17.0099717,0 l 8.4999857,0" /><path
       style="font-size:12px;fill:none;stroke:#000000;stroke-width:0.71999884;stroke-linecap:round;stroke-linejoin:round;stroke-miterlimit:3"
       inkscape:connector-curvature="0"
       id="path35"
       class="st4"
       d="m 13.463762,11.006913 0,8.499987" /><path
       d="m 21.969897,24.133865 -8.499991,-4.249996 8.489991,-4.249996 0.01,8.499992 z"
       class="st3"
       id="path31-7"
       inkscape:connector-curvature="0"
       style="font-size:12px;fill:#ffffff;fill-opacity:1;fill-rule:evenodd;stroke:#000000;stroke-width:0.74999928;stroke-linecap:round;stroke-linejoin:round;stroke-miterlimit:3;overflow:visible" /></g></g></svg>

<?xml version='1.0' encoding='UTF-8'?>
<!DOCTYPE svg PUBLIC "-//W3C//DTD SVG 1.0//EN" "C:\SeeVisioDTD\svg10.dtd">
<!--
/*******************************************************************************
* Copyright (c) 2010-2014 ITER Organization.
* All rights reserved. This program and the accompanying materials
* are made available under the terms of the Eclipse Public License v1.0
* which accompanies this distribution, and is available at
* http://www.eclipse.org/legal/epl-v10.html
******************************************************************************/
-->
<svg xmlns="http://www.w3.org/2000/svg" xmlns:xlink="http://www.w3.org/1999/xlink" width="33pt" height="66pt" viewBox="0 0 33 66" version="1.1">
<g id="surface1">
<path style="fill-rule:evenodd;fill:rgb(65.098039%,65.098039%,65.098039%);fill-opacity:1;stroke-width:0.720001;stroke-linecap:round;stroke-linejoin:round;stroke:rgb(0%,0%,0%);stroke-opacity:1;stroke-miterlimit:3;" d="M 4.972591 24.124055 L 4.972591 15.624064 L 21.982988 24.124055 L 21.982988 15.624064 Z M 4.972591 24.124055 " transform="matrix(1.875002,0,0,1.875002,-8.612681,-3.884997)"/>
<path style=" stroke:none;fill-rule:evenodd;fill:rgb(100%,100%,100%);fill-opacity:1;" d="M 16.632812 16.753906 L 32.589844 16.753906 C 32.589844 7.945312 25.449219 0.800781 16.640625 0.800781 C 7.832031 0.800781 0.691406 7.945312 0.695312 16.753906 Z M 16.632812 16.753906 "/>
<path style="fill:none;stroke-width:0.719999;stroke-linecap:round;stroke-linejoin:round;stroke:rgb(0%,0%,0%);stroke-opacity:1;stroke-miterlimit:3;" d="M 13.464248 11.007403 L 21.974655 11.007403 C 21.974655 6.309491 18.166326 2.499079 13.468415 2.499079 C 8.770503 2.499079 4.962174 6.309491 4.964258 11.007403 L 13.464248 11.007403 " transform="matrix(1.875002,0,0,1.875002,-8.612681,-3.884997)"/>
<path style="fill:none;stroke-width:0.719999;stroke-linecap:round;stroke-linejoin:round;stroke:rgb(0%,0%,0%);stroke-opacity:1;stroke-miterlimit:3;" d="M 13.464248 11.007403 L 13.464248 19.507393 " transform="matrix(1.875002,0,0,1.875002,-8.612681,-3.884997)"/>
<path style="fill-rule:evenodd;fill:rgb(100%,100%,100%);fill-opacity:1;stroke-width:0.749999;stroke-linecap:round;stroke-linejoin:round;stroke:rgb(0%,0%,0%);stroke-opacity:1;stroke-miterlimit:3;" d="M 21.970488 24.134471 L 13.470498 19.884476 L 21.960072 15.634481 Z M 21.970488 24.134471 " transform="matrix(1.875002,0,0,1.875002,-8.612681,-3.884997)"/>
</g>
</svg>
